X:17
T:Polska efter Smed-Per
R:polska K1
A:H\"alsingland
Z:id:hn-k1-17
M:3/4
L:1/8
K:D
D2 DF E>C|D>E DC D>F|A2 Ac B>^G|(3ABc A^G A>F|
D2 DF E>C|D>E DC D>F|A2 Ac B>^G|(3ABc A4:|
K:Ddor
|:A2 ag e>^c|d>e fg/f/ e>^c|A2 ag e>^c|d>e fg/f/ e>^c|d2 d4:|
<end>
<start>
